X:1
T:Surprise Symphony (theme)
C:Joseph Haydn
M:4/4
L:1/4
Q:1/4=88
K:C
C C G E | F D C2 | G G F D | E C G2 | C C G E | F D C2 | G G F D | E C C2 |]
